X:1
T:Mexikansk hattedans
%%score 1 2 3 ( 4 5 )
L:1/8
Q:1/4=170
M:6/8
K:C
V:1 treble transpose=-9 nm="Eb Alto Horn"
V:2 treble transpose=-9 nm="Eb Alto Horn"
V:3 treble transpose=-21 nm="C Tuba"
V:4 perc nm="trommesæt"
K:none
I:percmap c c 38 normal
V:5 perc 
K:none
I:percmap F F 35 normal
V:1
[K:G]"^Hurtigt"!f!"^D" !13!D |"^G""^1" !0!G"^2" z"^3" D"^2" G"^2" z"^3" D | G4 z D | %3
 G"^A"!12!AG"^Fis" !2!F z G | A4 z D | F z D F z D | F4 z"^D" D | FGF"^E" !12!E z F | %8
 G4"^D" !1!d"^Cis"!12!^c | d"^H"!2!B"^Ais"!1!^A BGF | G D2- D"^H"!2!B,"^C"!0!C | DEF GAB | %12
"^C" !0!c A2 z cB | cA"^Gis"!23!^G AF"^Eis"!1!^E | F D2- Ddd | d"^E"!0!ed cBA |1 G z z3 :|2 %17
 G z G G z2 |] %18
V:2
[K:G]!mf! [B,D] | [B,D] z [B,D] [B,D] z [B,D] | [B,D][B,D][B,D] [B,D] z [B,D] | %3
 [B,D] z [B,D] [B,D] z [B,D] | [A,CD][A,CD][A,CD] [A,CD] z [A,CD] | %5
 [A,CD] z [A,CD] [A,CD] z [A,CD] | [A,CD][A,CD][A,CD] [A,CD] z [A,CD] | %7
 [A,CD] z [A,CD] [A,CD] z [A,CD] | [B,D][B,D][B,D] [B,D] z [B,D] | [B,D] z [B,D] [B,D] z [B,D] | %10
 [B,D][B,D][B,D] [B,D] z [B,D] | [B,D] z [B,D] [B,D] z [B,D] | [A,CD][A,CD][A,CD] [A,CD] z [A,CD] | %13
 [A,CD] z [A,CD] [A,CD] z [A,CD] | [A,CD][A,CD][A,CD] [A,CD] z [A,CD] | [A,CD]6 |1 %16
 [B,D] z [B,D] [G,G] z :|2 [B,D] z [B,D] [B,D] z z |] %18
V:3
[K:G]!mf! D | G, z2 D z2 | G, z2 D z2 | G, z2 D z2 | A, z2 D z2 | A, z2 D z2 | A, z2 D z2 | %7
 A, z2 D z2 | G, z2 D z2 | G, z2 D z2 | G, z2 D z2 | G, z2 D z2 | A, z2 D z2 | A, z2 D z2 | %14
 A, z2 D z2 | A, z2 D z2 |1 G, z2 G, z :|2 G, z2 G, z z |] %18
V:4
!f! c | c z c c z !//!c- | ccc c z c | c z c c z !//!c- | ccc c z c | c z c c z !//!c- | %6
 ccc c z c | c z c c z !//!c- | ccc c z c | c z c c z !//!c- | ccc c z c | c z c c z !//!c- | %12
 ccc c z c | c z c c z !//!c- | ccc c z c | c z c c z !//!c- |1 ccc c z :|2 ccc c z z |] %18
V:5
 x | F x2 F x2 | F x F F x2 | F x2 F x2 | F x F F x2 | F x2 F x2 | F x F F x2 | F x2 F x2 | %8
 F x F F x2 | F x2 F x2 | F x F F x2 | F x2 F x2 | F x F F x2 | F x2 F x2 | F x F F x2 | %15
 F x2 F x2 |1 F x !>!F !>!F x :|2 F x F F x z |] %18

